X: 1
T: Galway Belle, The
M: 2/4
L: 1/8
R: polka
K: Emin
E>F GA | Be B2 | AF DF | EF DF |
E>F GA | Be B2 | AG FD |1 E2 ED :|2 E2 E2 ||
ee B2 | ee B2 | AF DF | EF DF | 
ee B2 | ee B2 | AG FD |1 E2 E2 :|2 E2 ED |]
